X:1
T:[ID 1-41a]
T:[ID 1-41a]
T:Bezeichnung standardisiert: Menuett Men.
T:Urheber unbekannt Datum in der hier transkribierten schriftlichen Quelle: vermutlich vor 1767
C:Urheber unbekannt
C:Datum in der hier transkribierten schriftlichen Quelle: vermutlich vor 1767
L:1/8
M:none
K:D
V:1 treble 
V:1
 DF A2 AB | A4 A2 | A2 B2 c2 | d4 e2 | fd B2 B2 | ec A2 A2 | BdcBA^G | A6 :: Ac e2 ef | e4 a2 | %10
 a2 g2 f2 | g4 a2 | bg e2 e2 | af d2 d2 | egfedc | d6 :| %16

